svgs/duotone/arrows-split-up-and-left.svg

<svg xmlns="http://www.w3.org/2000/svg" viewBox="0 0 512 512"><!--! Font Awesome Pro 6.1.1 by @fontawesome - https://fontawesome.com License - https://fontawesome.com/license (Commercial License) Copyright 2022 Fonticons, Inc. --><defs><style>.fa-secondary{opacity:.4}</style></defs><path class="fa-primary" d="M2.428 275.8C3.99 271.1 6.305 268.4 9.373 265.4L105.4 169.4C117.9 156.9 138.1 156.9 150.6 169.4C163.1 181.9 163.1 202.1 150.6 214.6L109.3 255.1H224C294.7 255.1 352 313.3 352 384C352 419.3 380.7 448 416 448H480C497.7 448 512 462.3 512 480C512 497.7 497.7 512 480 512H416C345.3 512 288 454.7 288 384C288 348.7 259.3 319.1 224 319.1H109.3L150.6 361.4C163.1 373.9 163.1 394.1 150.6 406.6C138.1 419.1 117.9 419.1 105.4 406.6L9.38 310.6C9.378 310.6 9.383 310.6 9.38 310.6C9.358 310.6 9.327 310.6 9.305 310.6C3.575 304.8 .0259 296.9 .0003 288.1C0 288 0 287.1 .0003 287.9C.0128 283.8 .8221 279.6 2.428 275.8L2.428 275.8zM2.428 275.8C.8755 279.5 .0131 283.6 .0006 287.9C.0006 287.9 .0006 287.1 .0006 287.1C.0006 288 .0006 288.1 .0006 288.1L2.428 275.8zM.0006 288.1L2.428 275.8z"/><path class="fa-secondary" d="M246.6 150.6C234.1 163.1 213.9 163.1 201.4 150.6C188.9 138.1 188.9 117.9 201.4 105.4L297.4 9.372C309.9-3.124 330.1-3.124 342.6 9.372L438.6 105.4C451.1 117.9 451.1 138.1 438.6 150.6C426.1 163.1 405.9 163.1 393.4 150.6L352 109.3V384C352 336.6 326.3 295.3 288 273.1V109.3L246.6 150.6z"/></svg>

<svg xmlns="http://www.w3.org/2000/svg" viewBox="0 0 512 512"><!--! Font Awesome Pro 6.4.2 by @fontawesome - https://fontawesome.com License - https://fontawesome.com/license (Commercial License) Copyright 2023 Fonticons, Inc. --><path class="fa-primary" style="fill:var(--fa-primary-color,inherit);opacity:var(--fa-primary-opacity,1);" d="M2.4 275.8c1.6-3.8 3.9-7.3 6.9-10.4l96-96c12.5-12.5 32.8-12.5 45.3 0s12.5 32.8 0 45.3L109.3 256 224 256c70.7 0 128 57.3 128 128c0 35.3 28.7 64 64 64l64 0c17.7 0 32 14.3 32 32s-14.3 32-32 32l-64 0c-70.7 0-128-57.3-128-128c0-35.3-28.7-64-64-64l-114.7 0 41.4 41.4c12.5 12.5 12.5 32.8 0 45.3s-32.8 12.5-45.3 0l-96-96s0 0 0 0c0 0 0 0-.1-.1C3.6 304.8 0 296.9 0 288.1c0-.1 0-.1 0-.2c0-4.1 .8-8.3 2.4-12.2zM0 288.1c0 0 0-.1 0-.1s0-.1 0-.1c0-4.3 .9-8.4 2.4-12.2"/><path class="fa-secondary" style="fill:var(--fa-secondary-color,inherit);opacity:var(--fa-secondary-opacity,.4);" d="M246.6 150.6c-12.5 12.5-32.8 12.5-45.3 0s-12.5-32.8 0-45.3l96-96c12.5-12.5 32.8-12.5 45.3 0l96 96c12.5 12.5 12.5 32.8 0 45.3s-32.8 12.5-45.3 0L352 109.3V384c0-47.4-25.7-88.7-64-110.9V109.3l-41.4 41.4z"/></svg>
